X: 87
T: Ge jiucai
L: 1/8
M: 2/4
K: D
A A G E [I:setbarnb 1]| 
A B/ A/ G E | 
A2D2 | 
E> F E E | 
A> E A A | 
E F E D/ D/ | 
B E, D B, | 
A, G,A,2 | 
G> E D =C | 
B, E D B, | 
A, G,A,2 |]

@@@ Tune index: 8961
